projects/icons/svg/calendar.svg

<?xml version="1.0" encoding="UTF-8" standalone="no"?>
<svg
   viewBox="0 0 700 700"
   version="1.1"
   id="svg9724"
   sodipodi:docname="calendar.svg"
   inkscape:version="1.3.2 (091e20ef0f, 2023-11-25)"
   width="700"
   height="700"
   xmlns:inkscape="http://www.inkscape.org/namespaces/inkscape"
   xmlns:sodipodi="http://sodipodi.sourceforge.net/DTD/sodipodi-0.dtd"
   xmlns="http://www.w3.org/2000/svg"
   xmlns:svg="http://www.w3.org/2000/svg">
  <defs
     id="defs9728" />
  <sodipodi:namedview
     id="namedview9726"
     pagecolor="#ffffff"
     bordercolor="#666666"
     borderopacity="1.0"
     inkscape:showpageshadow="2"
     inkscape:pageopacity="0.0"
     inkscape:pagecheckerboard="0"
     inkscape:deskcolor="#d1d1d1"
     showgrid="true"
     inkscape:zoom="0.59480855"
     inkscape:cx="133.65645"
     inkscape:cy="330.3584"
     inkscape:window-width="1920"
     inkscape:window-height="1048"
     inkscape:window-x="0"
     inkscape:window-y="0"
     inkscape:window-maximized="1"
     inkscape:current-layer="g10449"
     showguides="true">
    <inkscape:grid
       type="xygrid"
       id="grid9972"
       originx="0"
       originy="0"
       spacingy="1"
       spacingx="1"
       units="px"
       visible="true" />
    <sodipodi:guide
       position="-260,300"
       orientation="0,-1"
       id="guide383"
       inkscape:locked="false" />
    <sodipodi:guide
       position="300,520"
       orientation="1,0"
       id="guide385"
       inkscape:locked="false" />
    <sodipodi:guide
       position="240,520"
       orientation="0,-1"
       id="guide939"
       inkscape:locked="false" />
    <sodipodi:guide
       position="220,80"
       orientation="0,-1"
       id="guide941"
       inkscape:locked="false" />
    <sodipodi:guide
       position="335,335"
       orientation="0,-1"
       id="guide1236"
       inkscape:locked="false" />
  </sodipodi:namedview>
  <g
     id="g10449"
     transform="matrix(0.95173205,0,0,0.95115787,13.901174,12.168794)"
     style="stroke-width:1.05103">
    <g
       id="path10026"
       inkscape:transform-center-x="-0.59233046"
       inkscape:transform-center-y="-20.347403"
       transform="matrix(1.3807551,0,0,1.2700888,273.60014,263.99768)" />
    <g
       id="g11314"
       transform="matrix(1.5092301,0,0,1.3955555,36.774048,-9.4503933)"
       style="stroke-width:50.6951" />
    <g
       id="g1"
       transform="translate(52.535794,52.561347)">
      <path
         id="rect348"
         style="color:#000000;fill:#000000;stroke-linecap:round;stroke-linejoin:round;-inkscape-stroke:none;paint-order:stroke fill markers"
         d="m 143.0012,-12.781343 a 42.041302,42.041302 0 0 0 -42.043,42.041687 V 61.459996 H 27.434765 a 42.045506,42.045506 0 0 0 -42.04095,42.041684 v 472.47308 a 42.045506,42.045506 0 0 0 42.04095,42.04169 H 573.78036 a 42.045506,42.045506 0 0 0 42.043,-42.04169 V 103.50168 a 42.045506,42.045506 0 0 0 -42.043,-42.041684 H 500.25692 V 29.260344 a 42.041302,42.041302 0 0 0 -42.04095,-42.041687 42.041302,42.041302 0 0 0 -42.043,42.041687 V 61.459996 H 342.64954 V 29.260344 A 42.041302,42.041302 0 0 0 300.60859,-12.781343 42.041302,42.041302 0 0 0 258.56558,29.260344 V 61.459996 H 185.04215 V 29.260344 A 42.041302,42.041302 0 0 0 143.0012,-12.781343 Z M 69.475714,226.90186 H 531.73941 V 533.93307 H 69.475714 Z" />
      <path
         style="color:#000000;fill:#000000;stroke-linecap:round;stroke-linejoin:round;-inkscape-stroke:none;paint-order:stroke fill markers"
         d="m 389.92187,265.81641 a 10.511401,10.511401 0 0 0 -10.50976,10.51171 v 76.44727 a 10.511401,10.511401 0 0 0 10.50976,10.50977 h 94.5586 a 10.511401,10.511401 0 0 0 10.50976,-10.50977 v -76.44727 a 10.511401,10.511401 0 0 0 -10.50976,-10.51171 z m 10.51172,21.02148 h 73.53711 v 55.42578 h -73.53711 z"
         id="rect1123-6" />
      <path
         style="color:#000000;fill:#000000;stroke-linecap:round;stroke-linejoin:round;-inkscape-stroke:none;paint-order:stroke fill markers"
         d="m 253.33008,265.81641 c -5.80553,-1.8e-4 -10.51189,4.70618 -10.51172,10.51171 v 76.44727 c 9e-4,5.80477 4.70695,10.50995 10.51172,10.50977 h 94.55664 c 5.80477,1.8e-4 10.51082,-4.705 10.51172,-10.50977 v -76.44727 c 1.7e-4,-5.80553 -4.70619,-10.51189 -10.51172,-10.51171 z"
         id="rect1123-6-2"
         sodipodi:nodetypes="ccccccccc" />
      <path
         style="color:#000000;fill:#000000;stroke-width:1.05103;stroke-linecap:round;stroke-linejoin:round;-inkscape-stroke:none;paint-order:stroke fill markers"
         d="m 116.73786,264.38955 c -5.80553,-1.8e-4 -10.51189,4.70618 -10.51172,10.51171 v 76.44727 c 9e-4,5.80477 4.70695,10.50995 10.51172,10.50977 h 94.55664 c 5.80477,1.8e-4 10.51082,-4.705 10.51172,-10.50977 v -76.44727 c 1.7e-4,-5.80553 -4.70619,-10.51189 -10.51172,-10.51171 z"
         id="rect1123-6-2-9"
         sodipodi:nodetypes="ccccccccc" />
      <path
         style="color:#000000;fill:#000000;stroke-width:1.05103;stroke-linecap:round;stroke-linejoin:round;-inkscape-stroke:none;paint-order:stroke fill markers"
         d="m 253.33027,394.38567 c -5.80553,-1.8e-4 -10.51189,4.70618 -10.51172,10.51171 v 76.44727 c 9e-4,5.80477 4.70695,10.50995 10.51172,10.50977 h 94.55664 c 5.80477,1.8e-4 10.51082,-4.705 10.51172,-10.50977 v -76.44727 c 1.7e-4,-5.80553 -4.70619,-10.51189 -10.51172,-10.51171 z"
         id="rect1123-6-2-1"
         sodipodi:nodetypes="ccccccccc" />
      <path
         style="color:#000000;fill:#000000;stroke-width:1.05103;stroke-linecap:round;stroke-linejoin:round;-inkscape-stroke:none;paint-order:stroke fill markers"
         d="m 389.92267,395.80832 c -5.80553,-1.8e-4 -10.51189,4.70618 -10.51172,10.51171 v 76.44727 c 9e-4,5.80477 4.70695,10.50995 10.51172,10.50977 h 94.55664 c 5.80477,1.8e-4 10.51082,-4.705 10.51172,-10.50977 v -76.44727 c 1.7e-4,-5.80553 -4.70619,-10.51189 -10.51172,-10.51171 z"
         id="rect1123-6-2-1-7"
         sodipodi:nodetypes="ccccccccc" />
      <path
         style="color:#000000;fill:#000000;stroke-width:1.05103;stroke-linecap:round;stroke-linejoin:round;-inkscape-stroke:none;paint-order:stroke fill markers"
         d="m 116.73805,392.95881 c -5.80553,-1.8e-4 -10.51189,4.70618 -10.51172,10.51171 v 76.44727 c 9e-4,5.80477 4.70695,10.50995 10.51172,10.50977 h 94.55664 c 5.80477,1.8e-4 10.51082,-4.705 10.51172,-10.50977 v -76.44727 c 1.7e-4,-5.80553 -4.70619,-10.51189 -10.51172,-10.51171 z"
         id="rect1123-6-2-9-2"
         sodipodi:nodetypes="ccccccccc" />
    </g>
  </g>
</svg>

<?xml version="1.0" encoding="UTF-8" standalone="no"?>
<svg
   viewBox="0 0 600 600"
   version="1.1"
   id="svg9724"
   sodipodi:docname="calendar.svg"
   inkscape:version="1.2.2 (1:1.2.2+202212051550+b0a8486541)"
   width="600"
   height="600"
   xmlns:inkscape="http://www.inkscape.org/namespaces/inkscape"
   xmlns:sodipodi="http://sodipodi.sourceforge.net/DTD/sodipodi-0.dtd"
   xmlns="http://www.w3.org/2000/svg"
   xmlns:svg="http://www.w3.org/2000/svg">
  <defs
     id="defs9728" />
  <sodipodi:namedview
     id="namedview9726"
     pagecolor="#ffffff"
     bordercolor="#666666"
     borderopacity="1.0"
     inkscape:showpageshadow="2"
     inkscape:pageopacity="0.0"
     inkscape:pagecheckerboard="0"
     inkscape:deskcolor="#d1d1d1"
     showgrid="true"
     inkscape:zoom="0.84118632"
     inkscape:cx="136.11729"
     inkscape:cy="439.26059"
     inkscape:window-width="1920"
     inkscape:window-height="1009"
     inkscape:window-x="0"
     inkscape:window-y="1080"
     inkscape:window-maximized="1"
     inkscape:current-layer="g10449"
     showguides="true">
    <inkscape:grid
       type="xygrid"
       id="grid9972"
       originx="0"
       originy="0" />
    <sodipodi:guide
       position="-260,300"
       orientation="0,-1"
       id="guide383"
       inkscape:locked="false" />
    <sodipodi:guide
       position="300,520"
       orientation="1,0"
       id="guide385"
       inkscape:locked="false" />
    <sodipodi:guide
       position="240,520"
       orientation="0,-1"
       id="guide939"
       inkscape:locked="false" />
    <sodipodi:guide
       position="220,80"
       orientation="0,-1"
       id="guide941"
       inkscape:locked="false" />
    <sodipodi:guide
       position="335,335"
       orientation="0,-1"
       id="guide1236"
       inkscape:locked="false" />
  </sodipodi:namedview>

  <g
     id="g10449"
     transform="matrix(0.95173205,0,0,0.95115787,13.901174,12.168794)"
     style="stroke-width:1.05103">
    <g
       id="path10026"
       inkscape:transform-center-x="-0.59233046"
       inkscape:transform-center-y="-20.347403"
       transform="matrix(1.3807551,0,0,1.2700888,273.60014,263.99768)" />
    <g
       id="g11314"
       transform="matrix(1.5092301,0,0,1.3955555,36.774048,-9.4503933)"
       style="stroke-width:50.6951" />
    <path
       id="rect348"
       style="color:#000000;fill:#000000;stroke-linecap:round;stroke-linejoin:round;-inkscape-stroke:none;paint-order:stroke fill markers"
       d="M 143.0012 -12.781343 A 42.041302 42.041302 0 0 0 100.9582 29.260344 L 100.9582 61.459996 L 27.434765 61.459996 A 42.045506 42.045506 0 0 0 -14.606185 103.50168 L -14.606185 575.97476 A 42.045506 42.045506 0 0 0 27.434765 618.01645 L 573.78036 618.01645 A 42.045506 42.045506 0 0 0 615.82336 575.97476 L 615.82336 103.50168 A 42.045506 42.045506 0 0 0 573.78036 61.459996 L 500.25692 61.459996 L 500.25692 29.260344 A 42.041302 42.041302 0 0 0 458.21597 -12.781343 A 42.041302 42.041302 0 0 0 416.17297 29.260344 L 416.17297 61.459996 L 342.64954 61.459996 L 342.64954 29.260344 A 42.041302 42.041302 0 0 0 300.60859 -12.781343 A 42.041302 42.041302 0 0 0 258.56558 29.260344 L 258.56558 61.459996 L 185.04215 61.459996 L 185.04215 29.260344 A 42.041302 42.041302 0 0 0 143.0012 -12.781343 z M 69.475714 226.90186 L 531.73941 226.90186 L 531.73941 533.93307 L 69.475714 533.93307 L 69.475714 226.90186 z " />
    <path
       style="color:#000000;fill:#000000;stroke-linecap:round;stroke-linejoin:round;-inkscape-stroke:none;paint-order:stroke fill markers"
       d="m 389.92187,265.81641 a 10.511401,10.511401 0 0 0 -10.50976,10.51171 v 76.44727 a 10.511401,10.511401 0 0 0 10.50976,10.50977 h 94.5586 a 10.511401,10.511401 0 0 0 10.50976,-10.50977 v -76.44727 a 10.511401,10.511401 0 0 0 -10.50976,-10.51171 z m 10.51172,21.02148 h 73.53711 v 55.42578 h -73.53711 z"
       id="rect1123-6" />
    <path
       style="color:#000000;fill:#000000;stroke-linecap:round;stroke-linejoin:round;-inkscape-stroke:none;paint-order:stroke fill markers"
       d="m 253.33008,265.81641 c -5.80553,-1.8e-4 -10.51189,4.70618 -10.51172,10.51171 v 76.44727 c 9e-4,5.80477 4.70695,10.50995 10.51172,10.50977 h 94.55664 c 5.80477,1.8e-4 10.51082,-4.705 10.51172,-10.50977 v -76.44727 c 1.7e-4,-5.80553 -4.70619,-10.51189 -10.51172,-10.51171 z"
       id="rect1123-6-2"
       sodipodi:nodetypes="ccccccccc" />
    <path
       style="color:#000000;fill:#000000;stroke-width:1.05103;stroke-linecap:round;stroke-linejoin:round;-inkscape-stroke:none;paint-order:stroke fill markers"
       d="m 116.73786,264.38955 c -5.80553,-1.8e-4 -10.51189,4.70618 -10.51172,10.51171 v 76.44727 c 9e-4,5.80477 4.70695,10.50995 10.51172,10.50977 h 94.55664 c 5.80477,1.8e-4 10.51082,-4.705 10.51172,-10.50977 v -76.44727 c 1.7e-4,-5.80553 -4.70619,-10.51189 -10.51172,-10.51171 z"
       id="rect1123-6-2-9"
       sodipodi:nodetypes="ccccccccc" />
    <path
       style="color:#000000;fill:#000000;stroke-width:1.05103;stroke-linecap:round;stroke-linejoin:round;-inkscape-stroke:none;paint-order:stroke fill markers"
       d="m 253.33027,394.38567 c -5.80553,-1.8e-4 -10.51189,4.70618 -10.51172,10.51171 v 76.44727 c 9e-4,5.80477 4.70695,10.50995 10.51172,10.50977 h 94.55664 c 5.80477,1.8e-4 10.51082,-4.705 10.51172,-10.50977 v -76.44727 c 1.7e-4,-5.80553 -4.70619,-10.51189 -10.51172,-10.51171 z"
       id="rect1123-6-2-1"
       sodipodi:nodetypes="ccccccccc" />
    <path
       style="color:#000000;fill:#000000;stroke-width:1.05103;stroke-linecap:round;stroke-linejoin:round;-inkscape-stroke:none;paint-order:stroke fill markers"
       d="m 389.92267,395.80832 c -5.80553,-1.8e-4 -10.51189,4.70618 -10.51172,10.51171 v 76.44727 c 9e-4,5.80477 4.70695,10.50995 10.51172,10.50977 h 94.55664 c 5.80477,1.8e-4 10.51082,-4.705 10.51172,-10.50977 v -76.44727 c 1.7e-4,-5.80553 -4.70619,-10.51189 -10.51172,-10.51171 z"
       id="rect1123-6-2-1-7"
       sodipodi:nodetypes="ccccccccc" />
    <path
       style="color:#000000;fill:#000000;stroke-width:1.05103;stroke-linecap:round;stroke-linejoin:round;-inkscape-stroke:none;paint-order:stroke fill markers"
       d="m 116.73805,392.95881 c -5.80553,-1.8e-4 -10.51189,4.70618 -10.51172,10.51171 v 76.44727 c 9e-4,5.80477 4.70695,10.50995 10.51172,10.50977 h 94.55664 c 5.80477,1.8e-4 10.51082,-4.705 10.51172,-10.50977 v -76.44727 c 1.7e-4,-5.80553 -4.70619,-10.51189 -10.51172,-10.51171 z"
       id="rect1123-6-2-9-2"
       sodipodi:nodetypes="ccccccccc" />
  </g>
</svg>
